svg/printer_3d_nozzle_off_outline.svg

<svg xmlns="http://www.w3.org/2000/svg" viewBox="0 0 24 24"><path d="M22.1 21.5 2.4 1.7 1.1 3l4 4H5v6h2.5l3.5 4h2l1-1.1 6.9 6.9zM12 15l-3.5-4H7V9h.1l5.4 5.4zm-1 3h2v1c0 1.7-1.3 3-3 3H2v-2h8c.6 0 1-.4 1-1zM9 5.8l-2-2V2h10v5h2v6h-2.8l-1.3-1.3.6-.7H17V9h-2V4H9z"/></svg>

<svg xmlns="http://www.w3.org/2000/svg" id="mdi-printer-3d-nozzle-off-outline" viewBox="0 0 24 24"><path d="M22.1 21.5L2.4 1.7L1.1 3L5.1 7H5V13H7.5L11 17H13L14 15.9L20.9 22.8L22.1 21.5M12 15L8.5 11H7V9H7.1L12.5 14.4L12 15M11 18H13V19C13 20.7 11.7 22 10 22H2V20H10C10.6 20 11 19.6 11 19V18M9 5.8L7 3.8V2H17V7H19V13H16.2L14.9 11.7L15.5 11H17V9H15V4H9V5.8Z" /></svg>
